X: 39381
T: Tansey's Fancy
R: jig
M: 6/8
K: Gmajor
|:G2A|B3A3|BdB BAG|~B3 dcB|ABA DFA|
BAG ABA|GBd gdB|~A3 cBA|GFA:|
|:G2d|dcB gdB|GBd gdB|c2c ecA|GBd gdc|
~B3 ABA|GBd gdB|~A3 cBA|GFA:|

